X:2
T:Hökpers Vals (\251 Lars Hökpers)
C:W-51
M:3/4
L:1/8
K:Dm
A2|:"Dm"d3e fa|"Gm"+trill+g3f ed|"A"+trill+^c2 A3G| "Dm"{/G}F4 D2|"F"F2 EF AG |
"C"E4 c2|"G"+trill+=B2 GA Bd | "A"A4 A2|"Dm"d3e fa|"Gm"+trill+g3f ed|
"A"+trill+^c2 A3G| "Dm"{/G}+trill+F4 E2|D2 ^CD EF|"Gm"A2 G3E|"A"F2 E2 D^C|"Dm"D4 A2-:|
|:"Dm"(AF) (FD) (FA)|(AF) (FD) (FA)| A2 G3F |"A"{/F}+trill+E4 G2-|
(GE) (E^C) (EG)| "A"(GE) (E^C) (EG) |G2 A3E|"Dm"{/G}+trill+F4 A2-|
"Dm"(AF) (FD) (FA)|(AF) (FD) (FA)|"D"A2 d3c| "Gm"{/c}+trill+B4 B2|
"Gm"{/c}B2 c3B|"Dm"A4 F2| "A"GF E2 D^C|"Dm"D4 A2-:|]

#include "LeftHeader.h"
$SmallLMargin
$SmallRMargin
% %scale .85
% %footer 04/04/16 For use only by Roaring Jelly members
